release/img/desktop_white.svg

<svg width="81" height="74" viewBox="0 0 81 74" fill="none" xmlns="http://www.w3.org/2000/svg">
<path d="M72.9499 0.989746H7.49538C3.49538 0.989746 0.222656 4.27475 0.222656 8.28975V52.0897C0.222656 56.1047 3.49538 59.3897 7.49538 59.3897H32.9499V66.6898H29.3136C27.3136 66.6898 25.6772 68.3322 25.6772 70.3397C25.6772 72.3472 27.3136 73.9897 29.3136 73.9897H51.1317C53.1317 73.9897 54.7681 72.3472 54.7681 70.3397C54.7681 68.3322 53.1317 66.6898 51.1317 66.6898H47.4954V59.3897H72.9499C76.9499 59.3897 80.2227 56.1047 80.2227 52.0897V8.28975C80.2227 4.27475 76.9499 0.989746 72.9499 0.989746ZM69.3136 52.0897H11.1317C9.13175 52.0897 7.49538 50.4472 7.49538 48.4397V11.9397C7.49538 9.93225 9.13175 8.28975 11.1317 8.28975H69.3136C71.3136 8.28975 72.9499 9.93225 72.9499 11.9397V48.4397C72.9499 50.4472 71.3136 52.0897 69.3136 52.0897Z" fill="white"/>
</svg>

<svg width="81" height="74" fill="none" xmlns="http://www.w3.org/2000/svg"><path d="M72.95.99H7.495c-4 0-7.272 3.285-7.272 7.3v43.8c0 4.015 3.272 7.3 7.272 7.3H32.95v7.3h-3.636c-2 0-3.637 1.642-3.637 3.65 0 2.007 1.637 3.65 3.637 3.65h21.818c2 0 3.636-1.643 3.636-3.65 0-2.008-1.636-3.65-3.636-3.65h-3.637v-7.3H72.95c4 0 7.273-3.285 7.273-7.3V8.29c0-4.015-3.273-7.3-7.273-7.3zm-3.636 51.1H11.132c-2 0-3.637-1.643-3.637-3.65v-36.5c0-2.008 1.637-3.65 3.637-3.65h58.182c2 0 3.636 1.642 3.636 3.65v36.5c0 2.007-1.636 3.65-3.636 3.65z" fill="#fff"/></svg>
